X: 34446
T: Ricky's White Face
R: reel
M: 4/4
K: Gmajor
GA|:B2 AG Bded|dBAG EGGA|B2 AG Bded|degd BGGA|
B2 AG Bded|dBAG EGGB|A2 dA eAde|1 dega bggA:|2 dega bgag||
|:ed ~d2 BdAd|BGAG EGGg|ed ~d2 BdAd|degd BGGg|
[1 ed ~d2 BdAd|B2 AG EGGB|A2 dA eAde|dega bgag:|
[2 e3 g edBA|BGAG EGGB|A2 dA eAde|dega bggA||

